!!!OTL: Sheyuan gege mangshouge
!!!ARE: Asia, China,ÿHunan Jiahe
!! I, 505, 1)
!!!SCT: C1961
!!!YEM: Copyright 1995, estate of Helmut Schaffrath.
**kern
*ICvox
*Ivox
*M2/4
*k[f#]
*G:
{8e
16e
16d
8e
16e
16d
=1
8.ee
16dd
4dd
=2
8a
8dd
8b
16a
16g
=3
8.a
16b
4a}
=4
{8a
16b
16dd
8b
16a
16g
=5
16b
8a
16g
4e
=6
8g
16a
16b
8g
16a
16g
=7
8.e
16d
4e}
=8
{8g
16a
16b
8g
16a
16g
=9
8.e
16d
4e}
==
!!!AGN: Xiaodiao, Fensuge, Banjiage
!!!ONB: ESAC (Essen Associative Code) Database: SENGANSU
!!!AMT: simple duple
!!!AIN: vox
!!!EED: Helmut Schaffrath
!!!EEV: 1.0
*-
